docs/img/Group3.svg

<svg width="118" height="24" viewBox="0 0 118 24" fill="none" xmlns="http://www.w3.org/2000/svg">
<path d="M37.88 19.3901C37.2852 19.4223 36.6969 19.2532 36.21 18.9101C35.7969 18.6039 35.5613 18.1139 35.58 17.6001V8.33006C35.5701 8.25053 35.5975 8.1709 35.6542 8.11424C35.7108 8.05758 35.7905 8.03021 35.87 8.04006H37.55C37.74 8.04006 37.83 8.14006 37.83 8.33006V16.8801C37.83 17.2601 38 17.4501 38.35 17.4501C38.4983 17.4562 38.6468 17.4393 38.79 17.4001C38.99 17.4001 39.1 17.4601 39.11 17.6401L39.26 18.8901C39.2746 18.9638 39.2565 19.0402 39.2105 19.0997C39.1645 19.1591 39.095 19.1957 39.02 19.2001C38.652 19.3216 38.2675 19.3857 37.88 19.3901Z" fill="#696871"/>
<path fill-rule="evenodd" clip-rule="evenodd" d="M41.33 18.32C43.0712 19.7587 45.5887 19.7587 47.33 18.32V18.31C48.836 16.7394 48.836 14.2607 47.33 12.69C45.5859 11.2592 43.0741 11.2592 41.33 12.69C39.7857 14.249 39.7857 16.7611 41.33 18.32ZM45.77 17C44.9584 17.7352 43.7216 17.7352 42.91 17C42.1769 16.1571 42.1769 14.9029 42.91 14.06C43.7216 13.3249 44.9584 13.3249 45.77 14.06C46.5031 14.9029 46.5031 16.1571 45.77 17Z" fill="#696871"/>
<path fill-rule="evenodd" clip-rule="evenodd" d="M57.99 12.1601C57.99 11.9701 57.9 11.8701 57.71 11.8701L56.05 11.8801C55.9721 11.8735 55.8954 11.9023 55.8411 11.9585C55.7868 12.0148 55.7607 12.0925 55.77 12.1701V12.3301C55.1598 11.8633 54.408 11.6198 53.64 11.6401C52.5864 11.6025 51.5623 11.9919 50.8 12.7201C49.3014 14.2704 49.3014 16.7297 50.8 18.2801C51.5588 19.0148 52.5844 19.4084 53.64 19.3701C54.3864 19.3913 55.1185 19.1625 55.72 18.7201V19.3501C55.7404 19.8134 55.5706 20.2649 55.25 20.6001C54.8991 20.9203 54.4343 21.086 53.96 21.0601C53.5708 21.0679 53.1859 20.9785 52.84 20.8001C52.5562 20.6466 52.3389 20.3938 52.23 20.0901C52.1749 19.9551 52.0457 19.865 51.9 19.8601H50.22C49.95 19.8601 49.95 19.9501 49.95 20.1501C50.0907 20.9694 50.5651 21.6937 51.26 22.1501C52.0651 22.6719 53.0111 22.9338 53.97 22.9001C55.0316 22.9468 56.0714 22.5895 56.88 21.9001C57.6177 21.254 58.0254 20.3101 57.99 19.3301V12.1601ZM55.2 17.0001C54.8534 17.3901 54.3515 17.6062 53.83 17.5901C53.3028 17.6053 52.7952 17.3898 52.44 17.0001C52.0813 16.5883 51.8919 16.0559 51.91 15.5101C51.888 14.9588 52.0817 14.4208 52.45 14.0101C52.8044 13.6192 53.3126 13.4035 53.84 13.4201C54.3567 13.403 54.8546 13.6153 55.2 14.0001C55.8838 14.8832 55.8838 16.117 55.2 17.0001Z" fill="#696871"/>
<path fill-rule="evenodd" clip-rule="evenodd" d="M60.6199 18.3201C62.364 19.7509 64.8758 19.7509 66.6199 18.3201V18.3101C68.126 16.7394 68.126 14.2607 66.6199 12.6901C64.8744 11.2631 62.3654 11.2631 60.6199 12.6901C59.1125 14.264 59.1125 16.7461 60.6199 18.3201ZM63.6299 17.55C63.0957 17.5665 62.5771 17.3684 62.1899 17.0001C61.4695 16.1524 61.4695 14.9077 62.1899 14.0601C62.5771 13.6917 63.0957 13.4936 63.6299 13.5101C64.1607 13.4963 64.6751 13.6942 65.0599 14.0601C65.7802 14.9077 65.7802 16.1524 65.0599 17.0001C64.6751 17.3659 64.1607 17.5638 63.6299 17.55Z" fill="#696871"/>
<path fill-rule="evenodd" clip-rule="evenodd" d="M69.45 10.17C69.9967 10.6486 70.8132 10.6486 71.36 10.17C71.6022 9.94142 71.7395 9.62308 71.7395 9.29002C71.7395 8.95695 71.6022 8.63861 71.36 8.41002C70.8085 7.94422 70.0014 7.94422 69.45 8.41002C69.2077 8.63861 69.0704 8.95695 69.0704 9.29002C69.0704 9.62308 69.2077 9.94142 69.45 10.17ZM69.9 18.91C70.3882 19.2504 70.9755 19.4192 71.57 19.39C71.9608 19.3864 72.3487 19.3223 72.72 19.2C72.795 19.1957 72.8645 19.159 72.9105 19.0996C72.9565 19.0402 72.9745 18.9638 72.96 18.89L72.81 17.64C72.8 17.46 72.69 17.4 72.49 17.4C72.3432 17.4386 72.1916 17.4555 72.04 17.45C71.7 17.45 71.53 17.26 71.53 16.88V12.16C71.53 11.97 71.44 11.87 71.25 11.87H69.57C69.4904 11.8602 69.4108 11.8875 69.3541 11.9442C69.2975 12.0009 69.2701 12.0805 69.28 12.16V17.6C69.2623 18.1113 69.4934 18.5995 69.9 18.91Z" fill="#696871"/>
<path fill-rule="evenodd" clip-rule="evenodd" d="M81.9999 12.71C81.232 11.9778 80.2001 11.5881 79.1399 11.63C78.2141 11.6099 77.3209 11.9715 76.6699 12.63C76.3266 11.9592 75.6106 11.5636 74.8599 11.63C74.4919 11.6233 74.1258 11.6843 73.7799 11.81C73.635 11.8521 73.5392 11.9896 73.5499 12.14V13.32C73.5499 13.48 73.6599 13.56 73.8799 13.56H74.2099C74.3725 13.5362 74.5369 13.5906 74.6531 13.7068C74.7693 13.8231 74.8238 13.9874 74.7999 14.15V22.35C74.7853 22.4279 74.8101 22.5079 74.8661 22.5638C74.9221 22.6198 75.0021 22.6446 75.0799 22.63H76.7599C76.9499 22.63 77.0499 22.54 77.0499 22.35V18.74C77.6572 19.1785 78.391 19.4067 79.1399 19.39C80.2021 19.4328 81.2355 19.0389 81.9999 18.3C83.467 16.7255 83.467 14.2846 81.9999 12.71ZM78.9599 17.5895C78.4387 17.5895 77.9402 17.3766 77.5799 17C77.2186 16.574 77.0296 16.0283 77.0499 15.47C77.0266 14.9114 77.216 14.3646 77.5799 13.94C77.9402 13.5635 78.4387 13.3505 78.9599 13.3505C79.481 13.3505 79.9796 13.5635 80.3399 13.94C80.7183 14.3573 80.9161 14.9074 80.8899 15.47C80.9128 16.0322 80.7155 16.5811 80.3399 17C79.9796 17.3766 79.481 17.5895 78.9599 17.5895Z" fill="#696871"/>
<path d="M87.82 19.39C86.9223 19.4269 86.0321 19.2122 85.25 18.77C84.6142 18.3871 84.1873 17.7357 84.09 17C84.09 16.8 84.16 16.7 84.38 16.7H85.85C85.9925 16.7056 86.12 16.7905 86.18 16.92C86.39 17.46 86.94 17.73 87.82 17.73C88.1269 17.744 88.4326 17.6822 88.71 17.55C88.905 17.4619 89.0357 17.2736 89.05 17.06C89.05 16.8 88.89 16.62 88.57 16.5C88.1904 16.3737 87.798 16.2898 87.4 16.25C86.9284 16.1966 86.4608 16.1131 86 16C85.5518 15.8986 85.1443 15.6652 84.83 15.33C84.4558 14.8695 84.2896 14.2743 84.3712 13.6866C84.4527 13.0988 84.7746 12.5713 85.26 12.23C85.9807 11.7709 86.8264 11.5472 87.68 11.59C88.5063 11.5621 89.324 11.7665 90.04 12.18C90.6243 12.511 91.0284 13.0877 91.14 13.75C91.14 13.95 91.05 14.05 90.87 14.05H89.39C89.2624 14.0576 89.1433 13.9861 89.09 13.87C88.9911 13.6332 88.8049 13.4434 88.57 13.34C88.305 13.2014 88.009 13.1325 87.71 13.14C87.4168 13.1241 87.1244 13.1825 86.86 13.31C86.6693 13.3836 86.5426 13.5657 86.54 13.77C86.5531 14.0507 86.7478 14.2901 87.02 14.36C87.404 14.5047 87.8032 14.6054 88.21 14.66C88.6776 14.7216 89.1417 14.8083 89.6 14.92C90.0481 15.0215 90.4557 15.2548 90.77 15.59C91.1096 15.963 91.286 16.4563 91.26 16.96C91.2775 17.6632 90.9244 18.3239 90.33 18.7C89.5828 19.1797 88.7073 19.4203 87.82 19.39Z" fill="#696871"/>
<path d="M101.83 18.89C101.841 18.9617 101.823 19.035 101.78 19.0934C101.737 19.1517 101.672 19.1901 101.6 19.2C101.235 19.3192 100.854 19.3832 100.47 19.39C99.6969 19.47 98.9384 19.1401 98.4699 18.52C97.7635 19.1273 96.8502 19.4389 95.9199 19.39C95.0465 19.4302 94.1967 19.0998 93.5799 18.48C92.9679 17.8311 92.6465 16.9609 92.6899 16.07V12.16C92.6899 11.97 92.7799 11.87 92.9699 11.87H94.6499C94.8399 11.87 94.9299 11.97 94.9299 12.16V15.77C94.9116 16.2198 95.0654 16.6596 95.3599 17C95.6573 17.3155 96.0767 17.4869 96.5099 17.47C96.9526 17.4894 97.3847 17.3309 97.7099 17.03C98.018 16.7126 98.1809 16.2818 98.1599 15.84V12.16C98.1599 11.97 98.2499 11.87 98.4399 11.87H100.14C100.33 11.87 100.42 11.97 100.42 12.16V16.87C100.42 17.26 100.59 17.45 100.92 17.45C101.075 17.456 101.23 17.4391 101.38 17.4C101.457 17.3785 101.539 17.3933 101.603 17.4401C101.667 17.4869 101.707 17.5605 101.71 17.64L101.83 18.89Z" fill="#696871"/>
<path d="M117.72 18.89C117.738 18.9625 117.723 19.0393 117.678 19.0993C117.634 19.1593 117.565 19.1962 117.49 19.2C117.118 19.3209 116.731 19.3849 116.34 19.39C115.745 19.4207 115.158 19.2517 114.67 18.91C114.242 18.6127 113.99 18.1212 114 17.6V15.25C114.021 14.8016 113.871 14.3619 113.58 14.02C113.296 13.7035 112.885 13.531 112.46 13.55C112.077 13.5355 111.708 13.6977 111.46 13.99C111.196 14.3251 111.061 14.7439 111.08 15.17V18.86C111.08 19.05 110.99 19.15 110.8 19.15H109.11C109.03 19.1599 108.951 19.1325 108.894 19.0758C108.837 19.0192 108.81 18.9395 108.82 18.86V15.25C108.842 14.8065 108.703 14.3699 108.43 14.02C108.183 13.7224 107.817 13.5502 107.43 13.55C107.017 13.5334 106.617 13.6934 106.33 13.99C106.044 14.3144 105.897 14.7381 105.92 15.17V18.86C105.93 18.9395 105.902 19.0192 105.846 19.0758C105.789 19.1325 105.709 19.1599 105.63 19.15H104C103.81 19.15 103.72 19.05 103.72 18.86V14.15C103.744 13.9874 103.689 13.823 103.573 13.7068C103.457 13.5906 103.293 13.5361 103.13 13.56H102.8C102.58 13.56 102.47 13.48 102.47 13.32V12.14C102.459 11.9896 102.555 11.8521 102.7 11.81C103.046 11.6843 103.412 11.6233 103.78 11.63C104.501 11.5686 105.193 11.9264 105.56 12.55C106.242 11.9036 107.162 11.5703 108.1 11.63C109.014 11.5854 109.894 11.9791 110.47 12.69C111.14 11.9616 112.102 11.5726 113.09 11.63C113.972 11.5887 114.832 11.9187 115.46 12.54C116.074 13.1877 116.396 14.0587 116.35 14.95V16.88C116.35 17.26 116.52 17.45 116.84 17.45C116.995 17.4572 117.15 17.4404 117.3 17.4C117.507 17.4 117.617 17.48 117.63 17.64L117.72 18.89Z" fill="#696871"/>
<path fill-rule="evenodd" clip-rule="evenodd" d="M0.459927 10.57C1.97801 4.46836 7.45725 0.185303 13.7449 0.185303C20.0326 0.185303 25.5118 4.46836 27.0299 10.57H25.8299C23.8056 10.5402 21.8228 11.1452 20.1599 12.3C20.064 12.3695 19.9638 12.433 19.8599 12.49H19.7199C19.6161 12.433 19.5159 12.3695 19.4199 12.3C15.9884 9.99254 11.5014 9.99254 8.06993 12.3C7.97396 12.3695 7.87377 12.433 7.76993 12.49H7.62993C7.52609 12.433 7.42589 12.3695 7.32993 12.3C5.66706 11.1452 3.68424 10.5402 1.65993 10.57H0.459927ZM23.6699 16.84C24.2859 16.3603 25.0494 16.1093 25.8299 16.13H27.4399V12.92H25.8299C24.4552 12.9034 23.1118 13.3313 21.9999 14.14C20.7156 15.0869 18.9643 15.0869 17.6799 14.14C15.3449 12.5146 12.2449 12.5146 9.90993 14.14C8.62558 15.0869 6.87427 15.0869 5.58993 14.14C4.46433 13.321 3.10172 12.8925 1.70993 12.92H0.0499268V16.13H1.65993C2.44044 16.1093 3.20392 16.3603 3.81993 16.84C6.15087 18.4666 9.24898 18.4666 11.5799 16.84C12.1967 16.3618 12.9597 16.111 13.7399 16.13C14.5207 16.1076 15.2847 16.3588 15.8999 16.84C18.2349 18.4655 21.3349 18.4655 23.6699 16.84ZM25.8299 21.87C25.0494 21.8493 24.2859 22.1003 23.6699 22.58C21.3349 24.2055 18.2349 24.2055 15.8999 22.58C15.2847 22.0988 14.5207 21.8476 13.7399 21.87C12.9597 21.851 12.1967 22.1018 11.5799 22.58C9.24898 24.2066 6.15087 24.2066 3.81993 22.58C3.20392 22.1003 2.44044 21.8493 1.65993 21.87H0.0499268V18.66H1.70993C3.10172 18.6325 4.46433 19.061 5.58993 19.88C6.87427 20.8269 8.62558 20.8269 9.90993 19.88C12.2449 18.2546 15.3449 18.2546 17.6799 19.88C18.9643 20.8269 20.7156 20.8269 21.9999 19.88C23.1118 19.0713 24.4552 18.6434 25.8299 18.66H27.4399V21.87H25.8299Z" fill="#696871"/>
</svg>

<svg width="118" height="24" fill="none" xmlns="http://www.w3.org/2000/svg"><path d="M37.88 19.39a2.65 2.65 0 01-1.67-.48 1.56 1.56 0 01-.63-1.31V8.33a.26.26 0 01.29-.29h1.68c.19 0 .28.1.28.29v8.55c0 .38.17.57.52.57.148.006.297-.01.44-.05.2 0 .31.06.32.24l.15 1.25a.26.26 0 01-.24.31 3.773 3.773 0 01-1.14.19z" fill="#696871"/><path fill-rule="evenodd" clip-rule="evenodd" d="M41.33 18.32a4.71 4.71 0 006 0v-.01a4.06 4.06 0 000-5.62 4.73 4.73 0 00-6 0 4 4 0 000 5.63zM45.77 17a2.13 2.13 0 01-2.86 0 2.24 2.24 0 010-2.94 2.13 2.13 0 012.86 0 2.24 2.24 0 010 2.94zm12.22-4.84c0-.19-.09-.29-.28-.29l-1.66.01a.26.26 0 00-.28.29v.16a3.36 3.36 0 00-2.13-.69 3.91 3.91 0 00-2.84 1.08 4 4 0 000 5.56 3.88 3.88 0 002.84 1.09 3.35 3.35 0 002.08-.65v.63a1.7 1.7 0 01-.47 1.25 1.77 1.77 0 01-1.29.46 2.341 2.341 0 01-1.12-.26 1.31 1.31 0 01-.61-.71.37.37 0 00-.33-.23h-1.68c-.27 0-.27.09-.27.29a3 3 0 001.31 2 4.68 4.68 0 002.71.75 4.2 4.2 0 002.91-1 3.26 3.26 0 001.11-2.57v-7.17zM55.2 17a1.76 1.76 0 01-1.37.59 1.81 1.81 0 01-1.39-.59 2.16 2.16 0 01-.53-1.49 2.12 2.12 0 01.54-1.5 1.8 1.8 0 011.39-.59 1.75 1.75 0 011.36.58 2.45 2.45 0 010 3zm5.42 1.32a4.73 4.73 0 006 0v-.01a4.06 4.06 0 000-5.62 4.74 4.74 0 00-6 0 4.07 4.07 0 000 5.63zm3.01-.77a2 2 0 01-1.44-.55 2.27 2.27 0 010-2.94 2 2 0 011.44-.55 2 2 0 011.43.55 2.27 2.27 0 010 2.94 2 2 0 01-1.43.55zm5.82-7.38a1.45 1.45 0 001.91 0 1.21 1.21 0 000-1.76 1.48 1.48 0 00-1.91 0 1.21 1.21 0 000 1.76zm.45 8.74a2.69 2.69 0 001.67.48c.39-.004.779-.068 1.15-.19a.26.26 0 00.24-.31l-.15-1.25c-.01-.18-.12-.24-.32-.24a1.549 1.549 0 01-.45.05c-.34 0-.51-.19-.51-.57v-4.72c0-.19-.09-.29-.28-.29h-1.68a.26.26 0 00-.29.29v5.44c-.018.511.213 1 .62 1.31zm12.1-6.2a3.92 3.92 0 00-2.86-1.08 3.37 3.37 0 00-2.47 1 1.85 1.85 0 00-1.81-1 3.002 3.002 0 00-1.08.18.32.32 0 00-.23.33v1.18c0 .16.11.24.33.24h.33a.52.52 0 01.59.59v8.2a.24.24 0 00.28.28h1.68c.19 0 .29-.09.29-.28v-3.61a3.44 3.44 0 002.09.65A3.89 3.89 0 0082 18.3a4.1 4.1 0 000-5.59zm-3.04 4.88a1.91 1.91 0 01-1.38-.59 2.24 2.24 0 01-.53-1.53 2.21 2.21 0 01.53-1.53 1.91 1.91 0 012.76 0c.378.417.576.967.55 1.53a2.16 2.16 0 01-.55 1.53 1.91 1.91 0 01-1.38.59z" fill="#696871"/><path d="M87.82 19.39a4.82 4.82 0 01-2.57-.62A2.44 2.44 0 0184.09 17c0-.2.07-.3.29-.3h1.47a.38.38 0 01.33.22c.21.54.76.81 1.64.81a1.87 1.87 0 00.89-.18.58.58 0 00.34-.49c0-.26-.16-.44-.48-.56a5.412 5.412 0 00-1.17-.25c-.472-.053-.94-.137-1.4-.25a2.3 2.3 0 01-1.17-.67 2.14 2.14 0 01.43-3.1 4.12 4.12 0 012.42-.64 4.42 4.42 0 012.36.59 2.23 2.23 0 011.1 1.57c0 .2-.09.3-.27.3h-1.48a.31.31 0 01-.3-.18 1 1 0 00-.52-.53 1.76 1.76 0 00-.86-.2 1.74 1.74 0 00-.85.17.5.5 0 00-.32.46.64.64 0 00.48.59 5.42 5.42 0 001.19.3c.468.062.932.148 1.39.26a2.3 2.3 0 011.17.67c.34.373.516.866.49 1.37a2 2 0 01-.93 1.74 4.37 4.37 0 01-2.51.69zm14.01-.5a.27.27 0 01-.23.31 3.86 3.86 0 01-1.13.19 2.22 2.22 0 01-2-.87 3.62 3.62 0 01-2.55.87 3.1 3.1 0 01-2.34-.91 3.28 3.28 0 01-.89-2.41v-3.91c0-.19.09-.29.28-.29h1.68c.19 0 .28.1.28.29v3.61c-.018.45.135.89.43 1.23a1.5 1.5 0 001.15.47c.443.02.875-.14 1.2-.44a1.6 1.6 0 00.45-1.19v-3.68c0-.19.09-.29.28-.29h1.7c.19 0 .28.1.28.29v4.71c0 .39.17.58.5.58.155.006.31-.01.46-.05a.26.26 0 01.33.24l.12 1.25zm15.89 0a.249.249 0 01-.23.31c-.372.12-.759.185-1.15.19a2.67 2.67 0 01-1.67-.48 1.56 1.56 0 01-.67-1.31v-2.35a1.77 1.77 0 00-.42-1.23 1.42 1.42 0 00-1.12-.47 1.25 1.25 0 00-1 .44 1.779 1.779 0 00-.38 1.18v3.69c0 .19-.09.29-.28.29h-1.69a.26.26 0 01-.29-.29v-3.61a1.851 1.851 0 00-.39-1.23 1.3 1.3 0 00-1-.47 1.45 1.45 0 00-1.1.44 1.651 1.651 0 00-.41 1.18v3.69a.261.261 0 01-.29.29H104c-.19 0-.28-.1-.28-.29v-4.71a.52.52 0 00-.59-.59h-.33c-.22 0-.33-.08-.33-.24v-1.18a.32.32 0 01.23-.33 3.002 3.002 0 011.08-.18 1.88 1.88 0 011.78.92 3.38 3.38 0 012.54-.92 2.87 2.87 0 012.37 1.06 3.3 3.3 0 012.62-1.06 3.16 3.16 0 012.37.91 3.26 3.26 0 01.89 2.41v1.93c0 .38.17.57.49.57a1.5 1.5 0 00.46-.05c.207 0 .317.08.33.24l.09 1.25z" fill="#696871"/><path fill-rule="evenodd" clip-rule="evenodd" d="M.46 10.57a13.69 13.69 0 0126.57 0h-1.2a9.69 9.69 0 00-5.67 1.73c-.096.07-.196.133-.3.19h-.14a2.856 2.856 0 01-.3-.19 10.17 10.17 0 00-11.35 0c-.096.07-.196.133-.3.19h-.14a2.847 2.847 0 01-.3-.19 9.69 9.69 0 00-5.67-1.73H.46zm23.21 6.27a3.37 3.37 0 012.16-.71h1.61v-3.21h-1.61A6.38 6.38 0 0022 14.14a3.64 3.64 0 01-4.32 0 6.8 6.8 0 00-7.77 0 3.64 3.64 0 01-4.32 0 6.38 6.38 0 00-3.88-1.22H.05v3.21h1.61a3.37 3.37 0 012.16.71 6.78 6.78 0 007.76 0 3.39 3.39 0 012.16-.71 3.35 3.35 0 012.16.71 6.8 6.8 0 007.77 0zm2.16 5.03a3.37 3.37 0 00-2.16.71 6.8 6.8 0 01-7.77 0 3.35 3.35 0 00-2.16-.71 3.39 3.39 0 00-2.16.71 6.78 6.78 0 01-7.76 0 3.37 3.37 0 00-2.16-.71H.05v-3.21h1.66a6.38 6.38 0 013.88 1.22 3.64 3.64 0 004.32 0 6.8 6.8 0 017.77 0 3.64 3.64 0 004.32 0 6.38 6.38 0 013.83-1.22h1.61v3.21h-1.61z" fill="#696871"/></svg>
